X:414
T:La Charge
Z:Jack Campin, http://www.campin.me.uk/
F:Jack Campin's Nine-Note Tunebook
% last edit 03-02-2013
C:Manu Paris
S:Cam-French Tune Book
M:2/4
L:1/8
Q:1/4=150
K:DMin
D2  FE-|EG AG|D>E FE-|EFEC|D>E FE-|EG AG|D>E FG-|G4 :|
A3   B-|B2 GF|E>F GF-|F4  |D>F EG |FF ED|E2  DG-|GEFG|
A>B cB-|B2 GF|E>F GF-|F4  |D>F EG |A2 GF|E3   D-|D4 |]

